icons/desktop/16/svg/downloads-16.svg

<svg width="16" height="16" viewBox="0 0 16 16" fill="none" xmlns="http://www.w3.org/2000/svg">
<path d="M2.5 14C2.5 14.2758 2.72421 14.5 3 14.5H13C13.2758 14.5 13.5 14.2758 13.5 14V12H15V14C15 15.1042 14.1042 16 13 16H3C1.89579 16 1 15.1042 1 14V12H2.5V14Z" fill="black"/>
<path d="M8.75 10.4385L11.8789 7.30957L12.9395 8.37012L8.53027 12.7803C8.38964 12.9209 8.19888 13 8 13C7.80114 13 7.61035 12.9209 7.46973 12.7803L3.06055 8.37012L4.12109 7.30957L7.25 10.4385V1H8.75V10.4385Z" fill="black"/>
</svg>

<!-- This Source Code Form is subject to the terms of the Mozilla Public
   - License, v. 2.0. If a copy of the MPL was not distributed with this
   - file, You can obtain one at http://mozilla.org/MPL/2.0/. -->
<svg xmlns="http://www.w3.org/2000/svg" width="16" height="16" fill="context-fill" fill-opacity="context-fill-opacity" viewBox="0 0 16 16">
    <path d="M2.5 14a.5.5 0 0 0 .5.5h10a.5.5 0 0 0 .5-.5v-2H15v2a2 2 0 0 1-2 2H3a2 2 0 0 1-2-2v-2h1.5z" />
    <path d="m8.75 10.439 3.129-3.13 1.06 1.061-4.409 4.41a.75.75 0 0 1-1.06 0L3.06 8.37l1.061-1.06 3.129 3.129V1h1.5z" />
</svg>
